X: 1705
T: Michael Wiggins
C:trad English
B: australian traditional tunes wiki
M:6/8
L:1/8
R: Jig
Q: 3/8=100
K:D
V:1 
D|"G"B2B BAG|GFED2D|B2B BAG|"D7"=cAz z2D|
"G"B2B BAG|"Em"GFE "G"DB,D|"D"DED DEF|"G"AGz z2:|
E/F/|"A7"GFE CEG|"D"AFE DFA|"Em"BGE "A7"CAG|"D"FAz z2A|
"D"d2Ad2A|dAF DFA|"Em"BGE "A7"CAG |"D"FDz z2D||
"G"B2B BAG|GFED2D|B2B BAG|"D7"=cAz z2D|
"G"B2B BAG|"Em"GFE "G"DB,D|"D"DED DEF|"G"AGz z2||
% abcbook-tune_id 6342d53a21b703d419b48218


% abcbook-boost 0
% abcbook-tablature 
% abcbook-transpose 
% abcbook-lastupdated 1665324378999
% abcbook-soundfonts 
% abcbook-repeats 1
% NFF Book 2020
% Bush Traditions recording played by Roland Clarke

